X:179
T:Lib the Loun or.. JJo8.179
%%VWML:JohnsonVol8-2184-p90-0
F:http://www.vwml.org/record/JohnsonVol8/2184/p90
Z:Transcribed by Simon Furey and Lewis Jones
Z:vmp.Simon Wilson 2013 www.village-music-project.org.uk
Z:Dance added by John Chambers 2017
T:Balgeny. JJo8.179
M:2/4
L:1/8
%Q:1/4=100
K:F
|:\
c>d c/B/A/G/ | FCDE | FdcB | A2f2 |\
c>d c/B/A/G/ | FCDE | FdcB | {B}A2{G}F2 :|
|:\
fafa | fafc | dbdg | {f}e2{d}c2 |\
c>d c/B/A/G/ | Fcde | fdcB | {B}A2{G}F2 :|
W:  Hey contrary sides, the same on your
W:own, Cross over & turn; and hands round 6 hey
W:top and Bottom, that again, lead out
W:Sides and turn it out
W:
T:Alcove. JJo8.180, The
B:J.Johnson Choice Collection Vol 8 1758
Z:vmp.Simon Wilson 2013 www.village-music-project.org.uk
Z:Dance added by John Chambers 2017
M:2/4
L:1/8
%Q:1/2=80
K:A
   e |\
c2Ae | c2Ae | EAAA | A3B |\
cAAB | cAAB | cedc | {c2}B4 :|\
|: B |\
G2Ed | {e}d2cB | cBAa | A2AB |
GFEd | d2cB | cAaf | Tf2e>e |\
f2Df | e2Ce | dcBA | G/A/B Ec |\
d2fd | Tg2af | edcB | A4 :|
W:  First and 2d Cu. half Right and
W:Left. that back again. Cross over two
W:Cu. lead up and cast off. hands 6
W:round and Right and Left at top.
W:
